X: 128
T: Cantantibus organis – Allegro moderato
C: Franciszek Walczyński
%%abc-version 2.0
%%abcx-abcm2ps-target-version 5.9.1 (29 Sep 2008)
%%abc-creator hum2abc beta
%%abcx-conversion-date 2021/10/04 07:38:41
%%abc-edited-by Kamil Watkowski
%%abcx-initial-encoding-date 2021-08-09
%%humdrum-veritas 1556271951
%%humdrum-veritas-data 1489711963
%%linebreak <none>
%%barnumbers 0
L: 1/8
M: 3/4
N: Derived from pl-kozmzk--mzk-m-346--030_walczynski-franciszek--cantantibus-organis-allegro-moderato.krn
%%staves {1 2}
V: 1 clef=treble
V: 2 clef=bass
K: E
[V:1] z6 & z6 | 
[V:2] z6 & C,2D,E,F,G, | 
[V:1] z6 & z6 | 
[V:2] z6 & A,4G,2 | 
[V:1] z6 & z6 | 
[V:2] z6 & ^^F,D,^F,E,D,C, | 
[V:1] z6 & z6 | 
[V:2] z6 & ^B,,C,^^C,D,G,F, | 
[V:1] z6 & z6 | 
[V:2] C2DEFG & E,2D,2C,2 | 
[V:1] z6 & z6 | 
[V:2] A4G2 & ^B,,2D,2E,2 | 
[V:1] z6 & z6 | 
[V:2] ^^FD^FEDC & D,2>E,2 F,^^F, | 
[V:1] z6 & z6 | 
[V:2] ^B,C^^CDGF & G,2F,2^B,,2 | 
[V:1] z6 & z6 | 
[V:2] EDC=DCB, & C,D,E,2^E,2 | 
[V:1] z6 & F2GABc | 
[V:2] A,2B,2A,2 & F,6- | 
[V:1] z6 & =d4c2 | 
[V:2] G,2B,2A,2 & F,6 | 
[V:1] z6 & ^BG=BAGF | 
[V:2] G,2C4- & F,2^E,F,G,A, | 
[V:1] z6 & ^EF^^FGcB | 
[V:2] C6 & B,2E,2^E,2 | 
[V:1] z6 & AGFEDC | 
[V:2] CB,A,2^A,2 & F,4^^F,2 | 
[V:1] z6 & D6 | 
[V:2] ^B,6 & G,^^F,G,A,G,^F, | 
[V:1] c2defg & C6- | 
[V:2] G,6 & E,6 | 
[V:1] a4g2 & C2=B,2C2 | 
[V:2] A,4G,2 & F,4E,2 | 
[V:1] ^^fd^fedc & C2^B,CD2- | 
[V:2] A,2G,2-G,^^F, & D,2D,C,B,,A,, | 
[V:1] ^Bc^^cdgf & D6 | 
[V:2] G,6 & G,,2^F,2^B,,2 | 
[V:1] edc=dcB & G6 | 
[V:2] C^B,C4- & C,D,E,2^E,2 | 
[V:1] AGFe^dc & F^EF4 | 
[V:2] C=B,C4 & F,G,A,4 | 
[V:1] c4^B2 & G2F4 | 
[V:2] E2D4 & G,4G,,2 | 
[V:1] c6 & G6 | 
[V:2] E6 & C,2D,E,F,G, | 
[V:1] c4^B2 & F6 | 
[V:2] D6 & A,4G,2 | 
[V:1] c6- & [E2G2][F4A4] | 
[V:2] x6 & C,2F,,2D,,2 | 
[V:1] c6 & [E6G6] |]  
[V:2] x6 & !fermata!C,,6 |]  


